X:1
T:Title
%%score { ( 1 3 ) | ( 2 4 ) }
L:1/8
M:4/4
K:F
V:1 treble nm="Grand Piano"
V:3 treble 
V:2 bass 
V:4 bass 
V:1
 z4 z2[Q:1/4=106] C>F | A>A A>B A>G F>A | c>c c>d c2 d>c | B4 [EG]2 z2 | c4 [FA]2 z2 | %5
 A>A A>B A>G F>A | c>c c>d c2 c>c | c2 G2 d2 G2 |[M:3/4] [CEc]6 |[M:1/4] d>c |[M:4/4] B4 [EG]2 z2 | %11
 c4 [FA]2 z2 | G>G c>d e>d c>=B | [Ec]6 C>F | A>A A>B A>G F>A | c>c c>d c2 [DFB]>[DFB] | %16
 [CFA]2 [Fc]2 [EG]2 [Ec]2 |[M:3/4] F6 |] %18
V:2
 z4 z2 [F,A,]>[F,A,C] | [F,CF]>[F,CF] [F,CF]>[F,DF] [F,CF]>[F,B,C] [F,A,C]>[K:treble][F,CF] | %2
 [F,A,F]>[F,A,F] [F,A,F]>[F,B,F] [F,A,F]2 B>A | G4[K:bass] z4[K:treble] | A4[K:bass] z4 | %5
 [F,CF]>[F,CF] [F,CF]>[F,DF] [F,CF]>[F,B,C] [F,A,C]>[F,CF] | %6
 [F,A,F]>[F,A,F] [F,A,F]>[F,B,F] [F,A,F]2 [^F,A,_E]>[F,A,E] | [G,E]2 [G,CE]2 [G,=B,F]2 [G,DF]2 | %8
[M:3/4][K:bass] C,6 |[M:1/4][K:treble] B>A |[M:4/4] G4[K:bass] z4[K:treble] | %11
 A4[K:bass] z4[K:treble] | [G,CE]>[G,CE] [G,CE]>[G,CF] [G,CG]>[G,F][K:bass] [G,E]>[G,D] | %13
 [C,G,]6 [F,A,]>[F,A,C] | [F,CF]>[F,CF] [F,CF]>[F,DF] [F,CF]>[F,B,C] [F,A,C]>[F,CF] | %15
 [F,A,F]>[F,A,F] [F,A,F]>[F,B,F] [F,A,F]2 B,,>B,, | C,2 [C,A,]2 [C,B,]2 [C,B,]2 |[M:3/4] [F,A,]6 |] %18
V:3
 x8 | x8 | x8 | z2 C>C CC e>d | z2 C>C CC C>F | x8 | x8 | x8 |[M:3/4] x6 |[M:1/4] x2 | %10
[M:4/4] z2 C>C CC e>d | z2 C>C CC A>A | x8 | x8 | x8 | x8 | x8 |[M:3/4] x6 |] %18
V:4
 x8 | x15/2[K:treble] x/ | x8 | z2[K:bass] C,>C, C,C,[K:treble] c>B | %4
 z2[K:bass] F,>F, F,F, [F,A,]>[F,A,C] | x8 | x8 | x8 |[M:3/4][K:bass] x6 |[M:1/4][K:treble] x2 | %10
[M:4/4] z2[K:bass] C,>C, C,C,[K:treble] c>B | z2[K:bass] F,>F, F,F, [F,CF]>[K:treble][F,CF] | %12
 x6[K:bass] x2 | x8 | x8 | x8 | x8 |[M:3/4] x6 |] %18

